src/assets/icons/svg/telegram.svg

<svg width="24" height="24" viewBox="0 0 24 24" fill="none" xmlns="http://www.w3.org/2000/svg">
<path d="M23.3946 0.605689C22.8436 0.0541767 22.0405 -0.138999 21.2992 0.101784L1.42694 6.55148C0.647643 6.80453 0.106201 7.46755 0.0137332 8.28182C-0.0787349 9.09627 0.300659 9.86385 1.0036 10.2852C1.05707 10.3172 1.11365 10.3438 1.17261 10.3646L7.25719 12.5185V15.5018C7.25719 16.0197 7.67686 16.4393 8.19469 16.4393H11.3454L13.6276 22.8292C13.6481 22.8866 13.6743 22.9421 13.7058 22.9947C14.0846 23.6288 14.7449 23.9999 15.4676 23.9999C15.5469 23.9999 15.6269 23.9955 15.7073 23.9864C16.5216 23.8946 17.1848 23.3534 17.4382 22.5739L18.2521 20.0705C18.4121 19.5781 18.1426 19.0491 17.6502 18.8891C17.1579 18.7289 16.6289 18.9984 16.4688 19.4908L15.6551 21.9942C15.6302 22.0707 15.5771 22.1141 15.4973 22.1231C15.4378 22.1301 15.3885 22.1145 15.3503 22.0775L13.0292 15.5793L17.5753 7.69241C17.7846 7.32931 17.7275 6.87118 17.4353 6.5707C17.143 6.27005 16.6867 6.2001 16.3178 6.39932L8.10753 10.8305L1.92169 8.64089C1.88525 8.60244 1.87005 8.553 1.87683 8.49331C1.88598 8.41311 1.92938 8.35982 2.00573 8.3351L21.8779 1.88523C21.9505 1.86179 22.0145 1.87717 22.0686 1.93119C22.1228 1.98557 22.1383 2.05021 22.1145 2.12345L17.9937 14.8C17.8335 15.2924 18.1031 15.8214 18.5954 15.9814C19.0878 16.1414 19.6168 15.8719 19.7768 15.3795L23.8976 2.70316C24.1389 1.96103 23.9461 1.15738 23.3946 0.605689ZM11.4501 14.5643H9.13218V12.4083L14.3009 9.61849L11.4501 14.5643Z" fill="black"/>
</svg>

<?xml version="1.0" encoding="iso-8859-1"?>
<!-- Generator: Adobe Illustrator 23.1.0, SVG Export Plug-In . SVG Version: 6.00 Build 0)  -->
<svg version="1.1" id="&#x421;&#x43B;&#x43E;&#x439;_1"
	 xmlns="http://www.w3.org/2000/svg" xmlns:xlink="http://www.w3.org/1999/xlink" x="0px" y="0px" viewBox="0 0 24 24"
	 style="enable-background:new 0 0 24 24;" xml:space="preserve">
<path d="M23.395,0.606c-0.551-0.552-1.354-0.745-2.095-0.504L1.427,6.551c-0.779,0.253-1.321,0.916-1.413,1.73
	c-0.092,0.814,0.287,1.582,0.99,2.003c0.053,0.032,0.11,0.059,0.169,0.079l6.085,2.154v2.983c0,0.518,0.42,0.938,0.937,0.938h3.151
	l2.282,6.39c0.021,0.057,0.047,0.113,0.078,0.165C14.085,23.629,14.745,24,15.468,24c0.079,0,0.159-0.004,0.24-0.014
	c0.814-0.092,1.477-0.633,1.731-1.413l0.814-2.503c0.16-0.492-0.11-1.021-0.602-1.181c-0.492-0.16-1.021,0.109-1.181,0.602
	l-0.814,2.503c-0.025,0.076-0.078,0.12-0.158,0.129c-0.059,0.007-0.109-0.009-0.147-0.046l-2.321-6.498l4.546-7.887
	c0.209-0.363,0.152-0.821-0.14-1.122C17.143,6.27,16.687,6.2,16.318,6.399l-8.21,4.431l-6.186-2.19
	C1.885,8.602,1.87,8.553,1.877,8.493c0.009-0.08,0.053-0.133,0.129-0.158l19.872-6.45c0.073-0.023,0.137-0.008,0.191,0.046
	c0.054,0.054,0.07,0.119,0.046,0.192L17.994,14.8c-0.16,0.492,0.109,1.021,0.602,1.181c0.492,0.16,1.021-0.109,1.181-0.602
	l4.121-12.676C24.139,1.961,23.946,1.157,23.395,0.606z M11.45,14.564H9.132v-2.156l5.169-2.79L11.45,14.564z"/>
</svg>
